X:0783
M:C
L:1/8
K:G
Q:1/4=96 "Slow"
  (G>B)g>e dB2 z/G/|(G>B)g>e  d3e|d>BB>A   G<G`G>A |B>A`A>G  G3||
M:2/4
Q:1/4=128 "Quick"
  B>GD<D|A/G/A/B/ AG|B>GDB |(A>G)G2|]

